svg/emoji/angel_line.svg

<?xml version="1.0" encoding="UTF-8"?>
<svg width="24px" height="24px" viewBox="0 0 24 24" version="1.1" xmlns="http://www.w3.org/2000/svg" xmlns:xlink="http://www.w3.org/1999/xlink">
    <title>angle_line</title>
    <g id="Icon" stroke="none" stroke-width="1" fill="none" fill-rule="evenodd">
        <g id="Emoji" transform="translate(-96.000000, 0.000000)">
            <g id="angle_line" transform="translate(96.000000, 0.000000)">
                <path d="M24,0 L24,24 L0,24 L0,0 L24,0 Z M12.5935,23.2578 L12.5819,23.2595 L12.5109,23.295 L12.4919,23.2987 L12.4767,23.295 L12.4057,23.2595 C12.3958,23.2564 12.387,23.259 12.3821,23.2649 L12.378,23.2758 L12.3609,23.7031 L12.3659,23.7235 L12.3769,23.7357 L12.4805,23.8097 L12.4953,23.8136 L12.5071,23.8097 L12.6107,23.7357 L12.6233,23.7197 L12.6267,23.7031 L12.6096,23.2758 C12.6076,23.2657 12.601,23.2593 12.5935,23.2578 Z M12.8584,23.1453 L12.8445,23.1473 L12.6598,23.2397 L12.6499,23.2499 L12.6472,23.2611 L12.6651,23.6906 L12.6699,23.7034 L12.6784,23.7105 L12.8793,23.8032 C12.8914,23.8069 12.9022,23.803 12.9078,23.7952 L12.9118,23.7812 L12.8777,23.1665 C12.8753,23.1546 12.8674,23.147 12.8584,23.1453 Z M12.143,23.1473 C12.1332,23.1424 12.1222,23.1453 12.1156,23.1526 L12.1099,23.1665 L12.0758,23.7812 C12.0751,23.7927 12.0828,23.8019 12.0926,23.8046 L12.1083,23.8032 L12.3092,23.7105 L12.3186,23.7024 L12.3225,23.6906 L12.3404,23.2611 L12.3372,23.2485 L12.3278,23.2397 L12.143,23.1473 Z" id="MingCute" fill-rule="nonzero"></path>
                <path d="M21.4307,8.66675 C21.7997,9.71063 22,10.833 22,12 C22,17.5228 17.5228,22 12,22 C6.47715,22 2,17.5228 2,12 C2,10.833 2.20032,9.71063 2.56928,8.66675 C2.75333,8.14603 3.32465,7.87311 3.84537,8.05716 C4.36608,8.2412 4.63901,8.81253 4.45496,9.33324 C4.16061,10.166 4,11.0632 4,12 C4,16.4183 7.58172,20 12,20 C16.4183,20 20,16.4183 20,12 C20,11.0632 19.8394,10.166 19.545,9.33324 C19.361,8.81253 19.6339,8.2412 20.1546,8.05716 C20.6754,7.87311 21.2467,8.14603 21.4307,8.66675 Z M15.3956,15.3383 C15.761,15.7523 15.7216,16.3843 15.3076,16.7497 C14.4268,17.5272 13.2674,18.0000002 12,18.0000002 C10.7326,18.0000002 9.57326,17.5272 8.69245,16.7497 C8.27838,16.3843 8.23898,15.7523 8.60445,15.3383 C8.96991,14.9242 9.60185,14.8848 10.0159,15.2503 C10.5454,15.7176 11.2385,16.0000002 12,16.0000002 C12.7615,16.0000002 13.4546,15.7176 13.9841,15.2503 C14.3982,14.8848 15.0301,14.9242 15.3956,15.3383 Z M8.5,10 C9.58664,10 10.4575,10.6804 10.8941,11.5521 C11.1414,12.0459 10.9416,12.6468 10.4478,12.8941 C9.98929,13.1237357 9.43849393,12.9678617 9.16412187,12.5490585 L9.10588,12.4478 C8.94366,12.1239 8.69528,12 8.5,12 C8.32913,12 8.11760531,12.0948609 7.95871926,12.3355639 L7.89412,12.4478 C7.64679,12.9416 7.04598,13.1414 6.55217,12.8941 C6.05836,12.6468 5.85855,12.0459 6.10588,11.5521 C6.54249,10.6804 7.41336,10 8.5,10 Z M15.5,10 C16.5866,10 17.4575,10.6804 17.8941,11.5521 C18.1414,12.0459 17.9416,12.6468 17.4478,12.8941 C16.9892714,13.1237357 16.4384827,12.9678617 16.1641358,12.5490585 L16.1059,12.4478 C15.9437,12.1239 15.6953,12 15.5,12 C15.3291125,12 15.1175703,12.0948609 14.9586936,12.3355639 L14.8941,12.4478 C14.6468,12.9416 14.046,13.1414 13.5522,12.8941 C13.0584,12.6468 12.8586,12.0459 13.1059,11.5521 C13.5425,10.6804 14.4134,10 15.5,10 Z M12,2 C14.5358,2 16.862,2.22762 18.5809,2.6096 C19.4322,2.79879 20.1893,3.03753 20.7578,3.33625 C21.0411,3.48507 21.3266,3.67392 21.5528,3.91954 C21.7839,4.17053 22,4.53592 22,5 C22,5.46408 21.7839,5.82947 21.5528,6.08046 C21.3266,6.32608 21.0411,6.51493 20.7578,6.66374 C20.1893,6.96247 19.4322,7.20121 18.5809,7.3904 C16.862,7.77238 14.5358,8 12,8 C9.46419,8 7.13801,7.77238 5.41911,7.3904 C4.56777,7.20121 3.81073,6.96247 3.24216,6.66374 C2.9589,6.51493 2.6734,6.32608 2.44722,6.08046 C2.21611,5.82947 2,5.46408 2,5 C2,4.53592 2.21611,4.17053 2.44722,3.91954 C2.6734,3.67392 2.9589,3.48507 3.24216,3.33625 C3.81073,3.03753 4.56777,2.79879 5.41911,2.6096 C7.13801,2.22762 9.46419,2 12,2 Z M12,4 C9.56524,4 7.39143,4.22009 5.85297,4.56197 L5.42082125,4.66432127 C4.31644111,4.94725882 4.46049069,5.12858517 5.85297,5.43803 C7.39143,5.77991 9.56524,6 12,6 C14.4348,6 16.6086,5.77991 18.147,5.43803 L18.5791627,5.33567873 C19.6835784,5.05274118 19.5395241,4.87141483 18.147,4.56197 C16.6086,4.22009 14.4348,4 12,4 Z" id="形状" fill="#09244B"></path>
            </g>
        </g>
    </g>
</svg>

<svg xmlns="http://www.w3.org/2000/svg" width="24" height="24"><g fill="none" fill-rule="evenodd"><path d="M24 0v24H0V0h24ZM12.594 23.258l-.012.002-.071.035-.02.004-.014-.004-.071-.036c-.01-.003-.019 0-.024.006l-.004.01-.017.428.005.02.01.013.104.074.015.004.012-.004.104-.074.012-.016.004-.017-.017-.427c-.002-.01-.009-.017-.016-.018Zm.264-.113-.014.002-.184.093-.01.01-.003.011.018.43.005.012.008.008.201.092c.012.004.023 0 .029-.008l.004-.014-.034-.614c-.003-.012-.01-.02-.02-.022Zm-.715.002a.023.023 0 0 0-.027.006l-.006.014-.034.614c0 .012.007.02.017.024l.015-.002.201-.093.01-.008.003-.011.018-.43-.003-.012-.01-.01-.184-.092Z"/><path fill="#09244B" d="M21.43 8.667A9.984 9.984 0 0 1 22 12c0 5.523-4.477 10-10 10S2 17.523 2 12c0-1.167.2-2.29.57-3.333a1 1 0 1 1 1.885.666 8 8 0 1 0 15.09 0 1 1 0 0 1 1.886-.666Zm-6.034 6.671a1 1 0 0 1-.088 1.412A4.984 4.984 0 0 1 12 18a4.984 4.984 0 0 1-3.308-1.25 1 1 0 1 1 1.324-1.5c.53.468 1.223.75 1.984.75.761 0 1.455-.282 1.984-.75a1 1 0 0 1 1.412.088ZM8.5 10c1.087 0 1.957.68 2.394 1.552a1 1 0 0 1-1.73.997l-.058-.101C8.944 12.124 8.696 12 8.5 12c-.17 0-.382.095-.541.336l-.065.112a1 1 0 0 1-1.788-.896C6.542 10.68 7.413 10 8.5 10Zm7 0c1.087 0 1.957.68 2.394 1.552a1 1 0 0 1-1.73.997l-.058-.101c-.162-.324-.41-.448-.606-.448-.17 0-.382.095-.541.336l-.065.112a1 1 0 1 1-1.788-.896C13.543 10.68 14.413 10 15.5 10ZM12 2c2.536 0 4.862.228 6.58.61.852.189 1.61.428 2.178.726.283.15.569.338.795.584.23.25.447.616.447 1.08 0 .464-.216.83-.447 1.08a2.919 2.919 0 0 1-.795.584c-.569.298-1.326.537-2.177.726C16.862 7.772 14.536 8 12 8c-2.536 0-4.862-.228-6.58-.61-.852-.189-1.61-.428-2.178-.726a2.919 2.919 0 0 1-.795-.584C2.217 5.83 2 5.464 2 5c0-.464.216-.83.447-1.08.226-.246.512-.435.795-.584.569-.298 1.326-.537 2.177-.726C7.138 2.228 9.464 2 12 2Zm0 2c-2.435 0-4.609.22-6.147.562l-.432.102c-1.105.283-.96.465.432.774C7.391 5.78 9.565 6 12 6s4.609-.22 6.147-.562l.432-.102c1.105-.283.96-.465-.432-.774C16.609 4.22 14.435 4 12 4Z"/></g></svg>
